X:291
T:Grand Slow March. RH.291
R:march
S:Rev.R.Harrison’s MS,c1815,Cumbria
O:England
A:Temple Sowerby,Cumbria
Z:vmp.Simon Wilson. Review PJH, 2008.
M:C
L:1/8
Q:1/4=90
K:D
D4F2A2|D2D>DD2z2|d>ef>ga2b2|a3gf2z2|\
d>ef>ga2b2|e2e>ee2z2|f3g e>de>f|!
d2d>dd2z2|a3g g>fg>a|f2f>ff2z2|\
a3fg2a2|a3fg2a2|a2fa g>fe>d|a2a>aa2z2:|!
|:b>ab>c’ e’d’c’b|ba^gaa2z2|g>fgab2a>g|\
gf^eff2z2|f3g/f/e2a2|d2e>da2a2|!
f3g/f/e2a2|d2e>da2g2|f>ef>ga3g|\
f>ef>ga3g|f>ef>ga3c|d2d>dd2z2:|

